public/byteverse/hero/castle.svg

<svg width="361" height="563" viewBox="0 0 361 563" fill="none" xmlns="http://www.w3.org/2000/svg">
<path d="M406.974 551.806H367.157V545.355H351.86V527.563H333.842V467.081C348.08 466.93 357.43 466.602 361.563 466.098C381.723 463.578 397.7 450.6 398.356 450.045L407.755 442.258L396.214 446.265C387.645 448.704 378.76 449.851 369.854 449.667C347.425 449.667 312.572 443.317 273.738 413.051L273.133 412.572H270.941V368.37L273.461 357.634C282.584 357.634 291.807 357.761 300.426 357.761C322.577 357.761 336.437 357.408 341.629 356.677C359.269 354.157 373.18 341.128 373.76 340.574L381.169 333.492L371.592 337.146C363.918 339.611 355.886 340.777 347.828 340.599C327.819 340.599 296.897 334.248 263.204 304.033L262.599 303.503H261.365V268.903H261.843L264.363 257.562C271.344 257.562 278.4 257.688 285.003 257.688C296.497 257.963 307.998 257.602 319.452 256.605C334.321 254.085 345.938 240.98 346.442 240.426L351.986 234.05L344.25 237.452C337.71 239.859 330.778 241.021 323.812 240.88C306.827 240.88 280.971 234.655 253.099 205.296V177.147L255.165 168.024C260.86 168.024 266.581 168.15 271.949 168.15C287.624 168.15 297.024 167.798 300.728 167.042C313.328 164.521 322.905 151.367 323.409 150.812L326.66 146.377L321.468 148.191C313.507 150.576 305.233 151.748 296.923 151.669C277.392 151.669 249.193 145.344 225.857 115.254L225.328 114.574H222.077V101.243H218.145C217.588 98.9609 216.362 96.8977 214.624 95.3173C212.887 93.7369 210.717 92.7113 208.393 92.3719V0.691745C208.393 0.364136 207.637 0.0869141 206.729 0.0869141C205.822 0.0869141 205.041 0.364136 205.041 0.691745V92.3467C202.717 92.6861 200.547 93.7117 198.809 95.2921C197.072 96.8725 195.846 98.9357 195.288 101.217H191.659V114.574H188.408L187.879 115.254C164.543 145.344 136.344 151.644 116.813 151.644C108.504 151.72 100.229 150.548 92.2678 148.166L87.0764 146.352L90.3274 150.787C90.7306 151.342 100.408 164.522 113.008 167.016C116.713 167.772 126.112 168.125 141.787 168.125C147.155 168.125 152.875 168.125 158.571 167.999L160.637 177.122V205.271C132.917 234.63 106.909 240.854 89.9241 240.854C82.9575 240.996 76.0258 239.834 69.4864 237.427L61.7497 234.025L67.2939 240.401C67.7979 240.955 79.4155 254.085 94.2839 256.58C105.738 257.576 117.239 257.938 128.733 257.663C135.336 257.663 142.392 257.663 149.398 257.537L151.918 268.878H152.397V304.285C118.855 334.147 87.3789 340.448 66.7144 340.448C58.36 340.604 50.0334 339.438 42.0428 336.995L32.7437 333.593L39.9008 340.422C40.4804 340.977 54.366 354.081 72.0317 356.526C77.223 357.256 91.0833 357.609 113.235 357.609C121.652 357.609 130.623 357.609 139.519 357.483L142.442 370.411H142.619V412.547H140.426L139.821 413.026C100.987 443.266 66.1348 449.642 43.7313 449.642C34.7137 449.849 25.7165 448.694 17.0437 446.215L5.50176 442.183L14.9017 449.995C15.5569 450.55 31.4837 463.603 51.6947 466.048C55.9284 466.552 65.2778 466.88 79.5414 467.031V527.512H61.4978V545.304H46.2765V551.755H6.4594C5.70835 551.705 4.95494 551.808 4.24573 552.061C3.53652 552.313 2.88662 552.709 2.3366 553.223C1.78659 553.737 1.34808 554.358 1.04827 555.049C0.748456 555.739 0.59375 556.484 0.59375 557.237C0.59375 557.989 0.748456 558.734 1.04827 559.425C1.34808 560.115 1.78659 560.737 2.3366 561.251C2.88662 561.765 3.53652 562.16 4.24573 562.412C4.95494 562.665 5.70835 562.769 6.4594 562.718H406.974C407.725 562.769 408.479 562.665 409.188 562.412C409.897 562.16 410.547 561.765 411.097 561.251C411.647 560.737 412.085 560.115 412.385 559.425C412.685 558.734 412.84 557.989 412.84 557.237C412.84 556.484 412.685 555.739 412.385 555.049C412.085 554.358 411.647 553.737 411.097 553.223C410.547 552.709 409.897 552.313 409.188 552.061C408.479 551.808 407.725 551.705 406.974 551.755V551.806Z" fill="black"/>
</svg>

<svg width="361" height="563" fill="none" xmlns="http://www.w3.org/2000/svg"><path d="M406.974 551.806h-39.817v-6.451H351.86v-17.792h-18.018v-60.482c14.238-.151 23.588-.479 27.721-.983 20.16-2.52 36.137-15.498 36.793-16.053l9.399-7.787-11.541 4.007a89.537 89.537 0 0 1-26.36 3.402c-22.429 0-57.282-6.35-96.116-36.616l-.605-.479h-2.192V368.37l2.52-10.736c9.123 0 18.346.127 26.965.127 22.151 0 36.011-.353 41.203-1.084 17.64-2.52 31.551-15.549 32.131-16.103l7.409-7.082-9.577 3.654a72.472 72.472 0 0 1-23.764 3.453c-20.009 0-50.931-6.351-84.624-36.566l-.605-.53h-1.234v-34.6h.478l2.52-11.341c6.981 0 14.037.126 20.64.126a311.381 311.381 0 0 0 34.449-1.083c14.869-2.52 26.486-15.625 26.99-16.179l5.544-6.376-7.736 3.402a55.898 55.898 0 0 1-20.438 3.428c-16.985 0-42.841-6.225-70.713-35.584v-28.149l2.066-9.123c5.695 0 11.416.126 16.784.126 15.675 0 25.075-.352 28.779-1.108 12.6-2.521 22.177-15.675 22.681-16.23l3.251-4.435-5.192 1.814a82.783 82.783 0 0 1-24.545 3.478c-19.531 0-47.73-6.325-71.066-36.415l-.529-.68h-3.251v-13.331h-3.932a11.786 11.786 0 0 0-9.752-8.871V.692c0-.328-.756-.605-1.664-.605-.907 0-1.688.277-1.688.605v91.655a11.798 11.798 0 0 0-9.753 8.87h-3.629v13.357h-3.251l-.529.68c-23.336 30.09-51.535 36.39-71.066 36.39a82.985 82.985 0 0 1-24.545-3.478l-5.192-1.814 3.251 4.435c.404.555 10.081 13.735 22.681 16.229 3.705.756 13.104 1.109 28.779 1.109 5.368 0 11.088 0 16.784-.126l2.066 9.123v28.149c-27.72 29.359-53.728 35.583-70.713 35.583a55.87 55.87 0 0 1-20.438-3.427l-7.736-3.402 5.544 6.376c.504.554 12.121 13.684 26.99 16.179a311.628 311.628 0 0 0 34.449 1.083c6.603 0 13.659 0 20.665-.126l2.52 11.341h.479v35.407c-33.542 29.862-65.018 36.163-85.683 36.163a79.32 79.32 0 0 1-24.671-3.453l-9.3-3.402 7.158 6.829c.58.555 14.465 13.659 32.13 16.104 5.192.73 19.052 1.083 41.204 1.083 8.417 0 17.388 0 26.284-.126l2.923 12.928h.177v42.136h-2.193l-.605.479c-38.834 30.24-73.686 36.616-96.09 36.616a89.622 89.622 0 0 1-26.687-3.427l-11.542-4.032 9.4 7.812c.655.555 16.582 13.608 36.793 16.053 4.233.504 13.583.832 27.846.983v60.481H61.498v17.792H46.277v6.451H6.459a5.5 5.5 0 0 0-5.41 3.294 5.491 5.491 0 0 0 3.197 7.363c.709.253 1.462.357 2.213.306h400.515a5.487 5.487 0 0 0 5.866-5.481 5.488 5.488 0 0 0-1.743-4.014 5.49 5.49 0 0 0-4.123-1.468v.051z" fill="#000"/></svg>
